src/images/single-assets/ePENDLE.svg

<svg width="37" height="37" viewBox="0 0 37 37" fill="none" xmlns="http://www.w3.org/2000/svg">
    <path d="M18.562 36.9999C28.7793 36.9657 37.0341 28.6552 36.9999 18.4381C36.9657 8.22083 28.6552 -0.0341318 18.438 0.000106119C8.22078 0.0343439 -0.0341318 8.34478 0.000106119 18.562C0.034344 28.7792 8.3448 37.0342 18.562 36.9999Z"
          fill="#353535"/>
    <circle cx="13.8251" cy="16.3503" r="8.60028" fill="#DEDEDE"/>
    <ellipse cx="9.95605" cy="24.5187" rx="4.73132" ry="4.73132" fill="#1E4480"/>
    <path fill-rule="evenodd" clip-rule="evenodd"
          d="M10.4904 8.42041L10.4904 19.8172C12.8519 20.0826 14.6874 22.0863 14.6874 24.5187C14.6874 24.6502 14.6821 24.7806 14.6715 24.9094C14.3931 24.9366 14.1107 24.9506 13.8251 24.9506C10.839 24.9506 8.20829 23.4287 6.66638 21.1182C7.40067 20.4077 8.36442 19.9328 9.43569 19.8156V8.95294C9.77305 8.75232 10.1253 8.57413 10.4904 8.42041Z"
          fill="#152E51"/>
    <circle cx="23.7737" cy="21.595" r="7.83008" fill="#00FF00"/>
    <path fill-rule="evenodd" clip-rule="evenodd"
          d="M28.2897 21.5817C28.2971 24.0758 26.2812 26.1036 23.7871 26.111C21.293 26.1183 19.2652 24.1025 19.2578 21.6084C19.2505 19.1143 21.2663 17.0865 23.7604 17.0791C26.2545 17.0717 28.2823 19.0876 28.2897 21.5817ZM23.7842 25.1207C25.7313 25.1149 27.3052 23.5318 27.2994 21.5846C27.2941 19.8067 25.9737 18.34 24.2619 18.1029V20.2549C24.8067 20.4563 25.1951 20.9803 25.1951 21.595C25.1951 22.3839 24.5556 23.0233 23.7668 23.0233C22.9779 23.0233 22.3385 22.3839 22.3385 21.595C22.3385 20.9803 22.7268 20.4563 23.2716 20.2549V18.1049C21.558 18.3492 20.2429 19.8252 20.2481 21.6055C20.2539 23.5526 21.837 25.1264 23.7842 25.1207Z"
          fill="black"/>
</svg>

<svg xmlns="http://www.w3.org/2000/svg" width="37" height="37" fill="none"><path fill="#353535" d="M18.562 37C28.779 36.966 37.034 28.655 37 18.438S28.655-.034 18.438 0-.034 8.345 0 18.562 8.345 37.034 18.562 37"/><circle cx="13.825" cy="16.35" r="8.6" fill="#DEDEDE"/><circle cx="9.956" cy="24.519" r="4.731" fill="#1E4480"/><path fill="#152E51" fill-rule="evenodd" d="M10.49 8.42v11.397a4.73 4.73 0 0 1 4.182 5.092q-.418.042-.847.042a8.59 8.59 0 0 1-7.159-3.833 4.7 4.7 0 0 1 2.77-1.302V8.953q.507-.301 1.054-.533" clip-rule="evenodd"/><circle cx="23.774" cy="21.595" r="7.83" fill="#0F0"/><path fill="#000" fill-rule="evenodd" d="M28.29 21.582a4.516 4.516 0 1 1-9.032.026 4.516 4.516 0 0 1 9.032-.026m-4.506 3.539a3.526 3.526 0 0 0 .478-7.018v2.152a1.429 1.429 0 1 1-.99 0v-2.15a3.526 3.526 0 0 0 .512 7.016" clip-rule="evenodd"/></svg>
